!!!OTL: Taendelei.
!!!OTL-incipit: GUTEN ABEND LIEBES KIND
!!!ARE: Europa, Mitteleuropa, Deutschland, Niederrhein
!!!SCT: Z1153
!!!TXL: @@DE
!!!YEM: Copyright 1995, estate of Helmut Schaffrath.
**kern	**text
*ICvox	*
*M4/4	*
*met(c)	*
*k[b-e-]	*
*g:	*
=1	=1
!LO:TX:a:t=Vom Niederrhein.	!
{4.g	Gu-
8a	-ten
4b-/	A-
8aL	-bend,
8gJ	.
=2	=2
4a	lie-
4dd	-bes
2g}	Kind,
=3	=3
{4.b-	gu-
8cc	-ten
4dd	A-
8ccL	-bend,
8ddJ	.
=4	=4
4ee-	lie-
4dd	-bes
4cc}	Kind!
{8cc	ach,
8b-	wie
=5	=5
4.a	froh,
8b-/	daß
4cc	ich
4cc	dich
=6	=6
(4dd	ſind',
8ccL	.
8b-J	.
4a)}	.
{8b-L	wie
8aJ	.
=7	=7
4g	froh,
4g	daß
4dd	ich
4dd	dich
=8	=8
2g	find'!
2r}	.
==	==
!!!AGN: Liebes - Lied
!!!ONB: ESAC (Essen Associative Code) Database: ZUCCAL
!!!AMT: simple quadruple
!!!AIN: vox
!!!EED: Helmut Schaffrath
!!!EEV: 1.0
!!!GTL: V. Lieder der Minne.
!!!URL-scan: https://www.digitale-sammlungen.de/de/view/bsb11160573?page=333
!!!ENC: Anna Maria Matuszewska
!!!EEV: 2025/02/05
*-	*-
